assets/svg/icon_badge_linkedin.svg

<svg width="24" height="24" viewBox="0 0 24 24" fill="none" xmlns="http://www.w3.org/2000/svg">
<path d="M18.125 1.5H5.875C3.45912 1.5 1.5 3.45912 1.5 5.875V18.125C1.5 20.5409 3.45912 22.5 5.875 22.5H18.125C20.5417 22.5 22.5 20.5409 22.5 18.125V5.875C22.5 3.45912 20.5417 1.5 18.125 1.5Z" fill="#2562FE"/>
<path d="M5.71311 18.5H8.27049V9.44708H5.71311V18.5Z" fill="white"/>
<path d="M5.5 6.95176C5.5 7.75336 6.16833 8.40352 6.9918 8.40352C7.81613 8.40352 8.48361 7.75336 8.48361 6.95176C8.48361 6.15016 7.81528 5.5 6.9918 5.5C6.16833 5.5 5.5 6.15016 5.5 6.95176Z" fill="white"/>
<path d="M15.9426 18.5H18.5V12.9374C18.5 8.61421 13.7228 8.7714 12.5328 10.8997V9.44708H9.97541V18.5H12.5328V13.8879C12.5328 11.326 15.9426 11.1161 15.9426 13.8879V18.5Z" fill="white"/>
</svg>

<svg xmlns="http://www.w3.org/2000/svg" width="24" height="24" fill="none"><path fill="#2562FE" d="M18.125 1.5H5.875A4.375 4.375 0 0 0 1.5 5.875v12.25A4.375 4.375 0 0 0 5.875 22.5h12.25a4.375 4.375 0 0 0 4.375-4.375V5.875A4.375 4.375 0 0 0 18.125 1.5"/><path fill="#fff" d="M5.713 18.5H8.27V9.447H5.713zM5.5 6.952c0 .801.668 1.452 1.492 1.452s1.492-.65 1.492-1.452S7.815 5.5 6.992 5.5c-.824 0-1.492.65-1.492 1.452M15.943 18.5H18.5v-5.563c0-4.323-4.777-4.166-5.967-2.037V9.447H9.975V18.5h2.558v-4.612c0-2.562 3.41-2.772 3.41 0z"/></svg>
